X: 87
T:Hymn to Saint Magnus
T:Nobilis, humilis
S:Davidson & Apel, Historical Anthology of Music
M:C
L:1/4
Q:1/4=84
V:1
V:2
K:FLyd
[V:1] A c B2    |A c  B2  |A c B    d|A c     B2   |
[V:2] F A G2    |F A  G2  |F A G    B|F A     G2   |
%
[V:1] A c B2    |A c  B2  |A c B    d|c d/e/ (e d)||
[V:2] F A G2    |F A  G2  |F A G    B|A c    (c d)||
%
[V:1] e c B c   |A F (G A)|G A A    G|F3        z  |
[V:2] c A G A   |F F (E F)|G F E/D/ E|F3        z  |
%
[V:1] A c c B/c/|A F (G A)|G A A    G|F4          |]
[V:2] F A A G/A/|F F (E F)|G F E/D/ E|F4          |]

Lydian mode would be the G-mode on the pipes, but it's impractical; the G's
are not tuned so as to have any sort of reasonable harmonic relationship
with other notes on the chanter, and are not even exactly an octave apart,
so the G-mode is only used for a few desperate efforts at arranging non-pipe
music which is actually in the major with an essential melody note above the
octave.  Locrian mode would be the C-final mode, but the C on the chanter is
the most strangely tuned of all, with no other note having any detectable
harmonic relationship to it, so even if the Locrian mode had any musical
reality in Scottish music, the Highland pipes couldn't play it.

This Bosnian tune may just possibly be considered as Locrian, apart from
the sixth (D) occasionally being sharpened:

